X: 23133
T: Lawson's
R: hornpipe
M: 4/4
K: Gmajor
|:f2|~g2dB GBdf|ecAF G2A(B|{d}B)AdB cdfg|{b}afd^c defd|
~g2dB GBdf|ecAF G2A(B|{d}B)AdB cAFA|G2{A}GF G2:|
|:dc|BGDG BGAB|(3cBAeA (3cBAed|BGDG BGAG|FADA FADA|
BGDG BGAB|(3cBAeA (3cBAe2|dgfe dcBA|G2{A}GF G2:|

